img/brands/6.svg

<svg width="118" height="28" viewBox="0 0 118 28" fill="none" xmlns="http://www.w3.org/2000/svg">
<path d="M11.3473 -2.03529C10.9329 -1.25545 5.34631 9.26944 2.93988 13.7915C2.85648 13.9478 2.86289 14.0609 2.94437 14.214C5.30204 18.6449 10.0803 27.6334 10.1297 27.7174C10.1791 27.6341 14.9573 18.6449 17.315 14.2147C17.3964 14.0615 17.4035 13.9485 17.3194 13.7921C15.9703 11.2652 14.6301 8.73319 13.2809 6.20631C13.1943 6.04478 13.1885 5.92396 13.2784 5.76115C13.6492 5.08792 14.0046 4.40628 14.3805 3.69946C14.4338 3.79056 18.0091 10.5119 19.7624 13.805C19.8362 13.9433 19.8426 14.0467 19.7669 14.1895C16.9923 19.4041 14.2221 24.6213 11.4551 29.8405C11.3813 29.98 11.3063 30.0434 11.1382 30.0408C10.453 30.0291 9.76719 30.0324 9.08202 30.0388C8.95499 30.0401 8.88763 29.9994 8.82797 29.8857C6.04688 24.6407 3.26322 19.397 0.476349 14.1552C0.41861 14.046 0.413478 13.9646 0.473142 13.8516C3.26065 8.60849 6.04367 3.36478 8.83118 -1.87699C8.86646 -1.94289 8.94922 -2.02753 9.01081 -2.02818C9.77553 -2.03916 10.5402 -2.03529 11.3473 -2.03529Z" fill="#8F90A6"/>
<path d="M14.5169 1.17551C13.2415 3.56929 9.72584 10.1827 7.80954 13.7847C7.72807 13.9385 7.72229 14.0515 7.80569 14.2072C9.15486 16.7348 10.495 19.2662 11.8442 21.7931C11.9308 21.9552 11.9353 22.0754 11.8455 22.2382C11.4747 22.9114 11.1193 23.5931 10.7427 24.3006C10.6926 24.2153 7.11796 17.4933 5.36077 14.1937C5.28699 14.0554 5.28122 13.952 5.35692 13.8093C8.13096 8.59527 10.9011 3.37805 13.6681 -1.84111C13.7425 -1.98131 13.8182 -2.04334 13.985 -2.04076C14.6702 -2.02913 15.356 -2.03236 16.0412 -2.03882C16.1689 -2.04011 16.2349 -1.99811 16.2952 -1.88505C19.077 3.35996 21.8606 8.60366 24.6475 13.8454C24.7059 13.9546 24.7097 14.0367 24.6501 14.1491C21.8632 19.3909 19.0802 24.6346 16.2927 29.8764C16.2574 29.9423 16.1746 30.0262 16.113 30.0269C15.3483 30.0372 14.5836 30.0334 13.7823 30.0334C13.8349 29.93 19.4241 19.3954 22.1846 14.2066C22.268 14.0502 22.2616 13.9372 22.1795 13.7841C19.8218 9.35314 15.0436 0.364657 14.9942 0.281311C14.9852 0.296818 14.8101 0.624388 14.5169 1.17551Z" fill="#8F90A6"/>
<path d="M34.0931 20.8125H31.4762V9.36068C31.4762 9.21483 31.4603 9.12003 31.427 9.07336C31.3937 9.02669 31.3126 8.9771 31.1808 8.9246L30.4727 8.64749L30.6884 7.49823H37.2979C39.0024 7.49823 40.229 7.82492 40.9763 8.47831C41.7236 9.1317 42.0972 10.1862 42.0972 11.6388C42.0972 12.788 41.864 13.6733 41.3992 14.2932C40.9328 14.9145 40.2088 15.317 39.2254 15.5022L42.452 20.8125H39.5614L36.6303 15.7998H34.0931V20.8125ZM34.0931 13.8192H37.0039C37.9091 13.8192 38.5549 13.6544 38.9416 13.3233C39.3283 12.9937 39.5223 12.4322 39.5223 11.6388C39.5223 10.86 39.3283 10.3043 38.9416 9.97469C38.5549 9.64508 37.9091 9.47881 37.0039 9.47881H34.0931V13.8192Z" fill="#8F90A6"/>
<path d="M54.2375 7.49921V9.52062H47.3124V13.0676H52.8212V15.0088H47.3124V18.7935H54.3939V20.8149H44.6969V9.36311C44.6969 9.21727 44.681 9.12247 44.6477 9.0758C44.6144 9.02913 44.5333 8.97954 44.4015 8.92704L43.6934 8.64993L43.9091 7.50067H54.2375V7.49921Z" fill="#8F90A6"/>
<path d="M56.5593 9.36068C56.5593 9.21483 56.5433 9.12003 56.51 9.07336C56.4767 9.02669 56.3956 8.9771 56.2638 8.9246L55.5557 8.64749L55.7714 7.49823H58.7228C58.9198 7.49823 59.0472 7.52157 59.1066 7.56824C59.166 7.61491 59.2731 7.74325 59.431 7.95473L66.2186 17.2072V7.49969H68.6385V20.8125H66.1013L58.9806 11.105V20.8125H56.5607V9.36068H56.5593Z" fill="#8F90A6"/>
<path d="M77.9817 7.49921C78.2439 7.97466 78.5262 8.54638 78.8275 9.21289C79.1287 9.87941 79.44 10.6028 79.7615 11.3816C80.083 12.1619 80.4002 12.9728 80.7159 13.8187C81.0301 14.6646 81.3285 15.5032 81.6109 16.3345C81.8933 17.1658 82.1525 17.9665 82.3885 18.7322C82.6246 19.4979 82.8215 20.1921 82.9779 20.812H80.3423C80.1974 20.2709 80.0468 19.7415 79.8904 19.2266C79.7326 18.7118 79.582 18.2028 79.4371 17.7011H73.614C73.4562 18.2028 73.3027 18.7118 73.1521 19.2266C73.0015 19.7415 72.8537 20.2709 72.7089 20.812H70.0732C70.2311 20.1907 70.428 19.4979 70.6641 18.7322C70.9002 17.9665 71.1594 17.1673 71.4418 16.3345C71.7242 15.5017 72.0225 14.6631 72.3367 13.8187C72.651 12.9742 72.9696 12.1619 73.2911 11.3816C73.6126 10.6028 73.9239 9.87941 74.2252 9.21289C74.5264 8.54638 74.8088 7.97466 75.0709 7.49921H77.9817ZM76.5249 9.83565C75.6849 11.7375 74.9246 13.7122 74.2425 15.7599H78.8072C78.099 13.7122 77.3387 11.7389 76.5249 9.83565Z" fill="#8F90A6"/>
<path d="M84.2956 9.36068C84.2956 9.21483 84.2782 9.12003 84.2463 9.07336C84.213 9.02669 84.1319 8.9771 84.0001 8.9246L83.292 8.64749L83.5078 7.49823H86.7343C86.8516 7.49823 86.911 7.56386 86.911 7.69658V15.4031C86.911 16.6705 87.1803 17.582 87.7176 18.1377C88.2549 18.6919 89.1267 18.969 90.3345 18.969C91.5538 18.969 92.43 18.6919 92.9615 18.1377C93.493 17.5834 93.758 16.6719 93.758 15.4031V7.49823H96.3748V15.6014C96.3748 16.5655 96.2604 17.3909 96.0302 18.0779C95.8014 18.7648 95.4437 19.3292 94.9585 19.7711C94.4734 20.213 93.8463 20.5368 93.0802 20.7425C92.3127 20.9467 91.3989 21.0487 90.3359 21.0487C89.273 21.0487 88.3592 20.9467 87.5916 20.7425C86.8241 20.5383 86.1985 20.2145 85.7133 19.7711C85.2282 19.3292 84.8705 18.7648 84.6417 18.0779C84.4114 17.3909 84.297 16.5655 84.297 15.6014V9.36068H84.2956Z" fill="#8F90A6"/>
<path d="M99.404 9.36068C99.404 9.21483 99.388 9.12003 99.3547 9.07336C99.3214 9.02669 99.2403 8.9771 99.1086 8.9246L98.4004 8.64749L98.6162 7.49823H101.843C101.96 7.49823 102.019 7.56386 102.019 7.69658V18.791H108.058V20.8125H99.4025V9.36068H99.404Z" fill="#8F90A6"/>
<path d="M110.893 9.51965H106.604V7.49823H117.798V9.51965H113.51V20.8125H110.893V9.51965Z" fill="#8F90A6"/>
</svg>

<svg width="118" height="28" fill="none" xmlns="http://www.w3.org/2000/svg"><path d="M11.347-2.035c-.414.78-6 11.304-8.407 15.826-.084.157-.077.27.004.423 2.358 4.43 7.136 13.42 7.186 13.503.05-.083 4.827-9.072 7.185-13.502.081-.153.088-.267.004-.423-1.349-2.527-2.689-5.059-4.038-7.586-.087-.161-.093-.282-.003-.445.371-.673.727-1.355 1.102-2.062.054.092 3.63 6.813 5.382 10.106.074.138.08.242.005.385a11801.94 11801.94 0 0 0-8.312 15.65c-.074.14-.149.203-.317.2a77.865 77.865 0 0 0-2.056-.001c-.127.001-.194-.04-.254-.153C6.047 24.64 3.263 19.397.476 14.156c-.057-.11-.063-.191-.003-.304C3.261 8.608 6.043 3.365 8.831-1.877c.035-.066.118-.15.18-.151.765-.011 1.53-.007 2.336-.007z" fill="#8F90A6"/><path d="M14.517 1.176c-1.275 2.393-4.791 9.007-6.707 12.609-.082.153-.088.267-.004.422 1.349 2.528 2.689 5.06 4.038 7.586.087.162.091.282.002.445-.371.673-.727 1.355-1.103 2.063-.05-.086-3.625-6.808-5.382-10.107-.074-.139-.08-.242-.004-.385C8.13 8.595 10.9 3.38 13.668-1.84c.075-.14.15-.202.317-.2a77.91 77.91 0 0 0 2.056.002c.128-.001.194.04.254.154 2.782 5.245 5.566 10.489 8.352 15.73.059.11.063.192.003.304-2.787 5.242-5.57 10.486-8.357 15.727-.036.066-.118.15-.18.15-.765.011-1.53.007-2.33.007.052-.103 5.641-10.638 8.402-15.826.083-.157.077-.27-.005-.423C19.822 9.354 15.044.364 14.994.281c-.009.016-.184.343-.477.895zM34.093 20.813h-2.617V9.36c0-.146-.016-.241-.049-.288-.033-.046-.114-.096-.246-.148l-.708-.278.215-1.149h6.61c1.704 0 2.931.327 3.678.98.748.654 1.121 1.708 1.121 3.16 0 1.15-.233 2.035-.698 2.655-.466.622-1.19 1.024-2.174 1.21l3.227 5.31h-2.89L36.63 15.8h-2.537v5.012zm0-6.994h2.91c.906 0 1.552-.165 1.939-.496.386-.33.58-.89.58-1.684 0-.779-.194-1.335-.58-1.664-.387-.33-1.033-.496-1.938-.496h-2.91v4.34zM54.237 7.5v2.02h-6.925v3.548h5.51v1.94h-5.51v3.786h7.082v2.02h-9.697V9.365c0-.147-.016-.242-.05-.288-.033-.047-.114-.096-.245-.149l-.709-.277.216-1.15h10.328zM56.56 9.36c0-.145-.017-.24-.05-.287-.033-.046-.114-.096-.246-.148l-.708-.278.215-1.149h2.952c.197 0 .324.024.384.07.059.047.166.175.324.387l6.788 9.252V7.5h2.42v13.313H66.1l-7.12-9.708v9.707h-2.42V9.361h-.002zM77.982 7.5c.262.475.544 1.046.846 1.713a77.86 77.86 0 0 1 1.888 4.606 94.816 94.816 0 0 1 1.672 4.913c.237.766.433 1.46.59 2.08h-2.636a49.66 49.66 0 0 0-.452-1.585 97.77 97.77 0 0 1-.453-1.526h-5.823a79.237 79.237 0 0 0-.905 3.111h-2.636c.158-.621.355-1.314.591-2.08a90.702 90.702 0 0 1 1.673-4.913 75.81 75.81 0 0 1 1.888-4.606c.301-.667.584-1.238.846-1.714h2.91zm-1.457 2.336a67.283 67.283 0 0 0-2.282 5.924h4.564a89.305 89.305 0 0 0-2.282-5.924zM84.296 9.36c0-.145-.018-.24-.05-.287-.033-.046-.114-.096-.246-.148l-.708-.278.216-1.149h3.226c.118 0 .177.066.177.199v7.706c0 1.268.27 2.179.807 2.735.537.554 1.409.831 2.617.831 1.219 0 2.095-.277 2.627-.831.531-.555.796-1.466.796-2.735V7.498h2.617v8.103c0 .964-.115 1.79-.345 2.477-.229.687-.586 1.251-1.072 1.693-.485.442-1.112.766-1.878.971-.767.205-1.681.307-2.744.307-1.063 0-1.977-.102-2.744-.306-.768-.205-1.394-.528-1.879-.972-.485-.442-.842-1.006-1.071-1.693-.23-.687-.345-1.512-.345-2.477v-6.24h-.001zM99.404 9.36c0-.145-.016-.24-.05-.287-.033-.046-.114-.096-.245-.148l-.709-.278.216-1.149h3.227c.117 0 .176.066.176.199V18.79h6.039v2.021h-8.656V9.361h.002zM110.893 9.52h-4.289V7.498h11.194V9.52h-4.288v11.293h-2.617V9.52z" fill="#8F90A6"/></svg>
